static/assets/emoji/svg/1f949.svg

<svg viewBox="0 0 128 128" xmlns="http://www.w3.org/2000/svg" xmlns:xlink="http://www.w3.org/1999/xlink"><font horiz-adv-x="2048"><font-face font-family="Roboto-Bold" underline-position="-150" underline-thickness="100" units-per-em="2048"/><glyph d="M393 856h154c73 0 128 18 163 55s53 85 53 146c0 59-17 104-52 137s-84 49-145 49c-55 0-102-15-139-45-37-31-56-70-56-119H82c0 76 21 144 62 205 41 60 98 107 172 141 73 34 154 51 243 51 154 0 275-37 362-110 87-74 131-176 131-305 0-67-20-128-61-184s-94-99-160-129c82-29 143-73 184-132 40-59 60-128 60-208 0-129-47-233-141-311C839 19 714-20 559-20 414-20 295 18 203 95 110 172 64 273 64 399h289c0-55 21-99 62-134s91-52 151-52c69 0 123 18 162 55 39 36 58 84 58 144 0 145-80 218-240 218H393z" horiz-adv-x="1175" unicode="3"/></font><defs><path id="a" d="M3.93 4.01h120.55v58.36H3.93z"/></defs><clipPath id="b"><use xlink:href="#a"/></clipPath><linearGradient id="c" x1="79.154" x2="79.154" y1="-8.667" y2="41.338" gradientUnits="userSpaceOnUse"><stop stop-color="#1E88E5" offset=".136"/><stop stop-color="#1565C0" offset=".938"/></linearGradient><path clip-path="url(#b)" fill="url(#c)" d="M48.44 46.18h31.43l30-48.43H78.44z"/><g clip-path="url(#b)" opacity=".2"><path d="M104.23 1L78.2 43H53.85L80.11 1H104m5.87-3H78.44l-30 48h31.42l30.01-48z" fill="#424242"/></g><path d="M82 34H46c-4.42 0-8 3.58-8 8v16.04c0 2.17 1.8 3.95 4.02 3.96h.01c2.23-.01 4.97-1.75 4.97-3.96V48c0-1.1.9-2 2-2h30c1.1 0 2 .9 2 2v9.93c0 1.98 2.35 3.68 4.22 4.04.26.05.52.08.78.08 2.21 0 4-1.79 4-4V42c0-4.42-3.58-8-8-8z" clip-path="url(#b)" fill="#FF9800"/><g clip-path="url(#b)" opacity=".2"><path d="M82 36c3.31 0 6 2.69 6 6v16.04A2.006 2.006 0 0 1 85.59 60c-1.18-.23-2.59-1.35-2.59-2.07V48c0-2.21-1.79-4-4-4H49c-2.21 0-4 1.79-4 4v10.04c0 .88-1.64 1.96-2.97 1.96-1.12-.01-2.03-.89-2.03-1.96V42c0-3.31 2.69-6 6-6h36m0-2H46c-4.42 0-8 3.58-8 8v16.04c0 2.17 1.8 3.95 4.02 3.96h.01c2.23-.01 4.97-1.75 4.97-3.96V48c0-1.1.9-2 2-2h30c1.1 0 2 .9 2 2v9.93c0 1.98 2.35 3.68 4.22 4.04.26.05.52.08.78.08 2.21 0 4-1.79 4-4V42c0-4.42-3.58-8-8-8z" fill="#424242"/></g><linearGradient id="d" x1="34.81" x2="66.143" y1="-.925" y2="49.075" gradientUnits="userSpaceOnUse"><stop stop-color="#64B5F6" offset=".136"/><stop stop-color="#2196F3" offset=".946"/></linearGradient><path clip-path="url(#b)" fill="url(#d)" d="M79.87 46.18H48.44l-30-48.43h31.43z"/><g clip-path="url(#b)" opacity=".2"><path d="M48.1 1l26.35 42H50.1L23.86 1H48m1.87-3H18.44l30 48h31.42L49.87-2z" fill="#424242"/></g><radialGradient id="e" cx="47.5" cy="67" r="73.814" gradientUnits="userSpaceOnUse"><stop stop-color="#FFA726" offset=".267"/><stop stop-color="#FB8C00" offset="1"/></radialGradient><circle cx="64" cy="86" r="38" fill="url(#e)"/><path d="M64 51c19.3 0 35 15.7 35 35s-15.7 35-35 35-35-15.7-35-35 15.7-35 35-35m0-3c-20.99 0-38 17.01-38 38s17.01 38 38 38 38-17.01 38-38-17.01-38-38-38z" fill="#424242" opacity=".2"/><path fill="none" d="M47.3 63.59h33.4v44.4H47.3z"/><text transform="translate(47.298 107.09)" fill="#D84315" font-family="'Roboto-Bold'" font-size="58">3</text></svg>

<svg enable-background="new 0 0 128 128" viewBox="0 0 128 128" xmlns="http://www.w3.org/2000/svg" xmlns:xlink="http://www.w3.org/1999/xlink"><font horiz-adv-x="2048"><font-face font-family="Roboto-Bold" underline-position="-150" underline-thickness="100" units-per-em="2048"/><missing-glyph d="M808,0l-708,0l0,1456l708,0M754,84l0,1287l-274,-643M154,1359l0,-1263l268,632M194,54l515,0l-258,606M451,796l258,606l-515,0z" horiz-adv-x="908"/><glyph d="M393,856l154,0C620,856 675,874 710,911C745,948 763,996 763,1057C763,1116 746,1161 711,1194C676,1227 627,1243 566,1243C511,1243 464,1228 427,1198C390,1167 371,1128 371,1079l-289,0C82,1155 103,1223 144,1284C185,1344 242,1391 316,1425C389,1459 470,1476 559,1476C713,1476 834,1439 921,1366C1008,1292 1052,1190 1052,1061C1052,994 1032,933 991,877C950,821 897,778 831,748C913,719 974,675 1015,616C1055,557 1075,488 1075,408C1075,279 1028,175 934,97C839,19 714,-20 559,-20C414,-20 295,18 203,95C110,172 64,273 64,399l289,0C353,344 374,300 415,265C456,230 506,213 566,213C635,213 689,231 728,268C767,304 786,352 786,412C786,557 706,630 546,630l-153,0z" horiz-adv-x="1175" unicode="3"/></font><defs><rect id="g" x="3.93" y="4.01" width="120.55" height="58.36"/></defs><clipPath id="a"><use xlink:href="#g"/></clipPath><linearGradient id="e" x1="79.154" x2="79.154" y1="-8.6667" y2="41.338" gradientUnits="userSpaceOnUse"><stop stop-color="#1E88E5" offset=".1355"/><stop stop-color="#1565C0" offset=".938"/></linearGradient><polygon points="48.44 46.18 79.87 46.18 109.87 -2.25 78.44 -2.25" clip-path="url(#a)" fill="url(#e)"/><g clip-path="url(#a)" opacity=".2"><path d="m104.23 1-26.03 42h-24.35l26.26-42h23.89m5.87-3h-31.43l-30 48h31.42l30.01-48z" fill="#424242"/></g><path d="m82 34h-36c-4.42 0-8 3.58-8 8v16.04c0 2.17 1.8 3.95 4.02 3.96h0.01c2.23-0.01 4.97-1.75 4.97-3.96v-10.04c0-1.1 0.9-2 2-2h30c1.1 0 2 0.9 2 2v9.93c0 1.98 2.35 3.68 4.22 4.04 0.26 0.05 0.52 0.08 0.78 0.08 2.21 0 4-1.79 4-4v-16.05c0-4.42-3.58-8-8-8z" clip-path="url(#a)" fill="#FF9800"/><g clip-path="url(#a)" opacity=".2"><path d="m82 36c3.31 0 6 2.69 6 6v16.04c0 1.1-0.9 2-2 2-0.13 0-0.27-0.01-0.41-0.04-1.18-0.23-2.59-1.35-2.59-2.07v-9.93c0-2.21-1.79-4-4-4h-30c-2.21 0-4 1.79-4 4v10.04c0 0.88-1.64 1.96-2.97 1.96-1.12-0.01-2.03-0.89-2.03-1.96v-16.04c0-3.31 2.69-6 6-6h36m0-2h-36c-4.42 0-8 3.58-8 8v16.04c0 2.17 1.8 3.95 4.02 3.96h0.01c2.23-0.01 4.97-1.75 4.97-3.96v-10.04c0-1.1 0.9-2 2-2h30c1.1 0 2 0.9 2 2v9.93c0 1.98 2.35 3.68 4.22 4.04 0.26 0.05 0.52 0.08 0.78 0.08 2.21 0 4-1.79 4-4v-16.05c0-4.42-3.58-8-8-8z" fill="#424242"/></g><linearGradient id="d" x1="34.81" x2="66.143" y1="-.9254" y2="49.075" gradientUnits="userSpaceOnUse"><stop stop-color="#64B5F6" offset=".1355"/><stop stop-color="#2196F3" offset=".9462"/></linearGradient><polygon points="79.87 46.18 48.44 46.18 18.44 -2.25 49.87 -2.25" clip-path="url(#a)" fill="url(#d)"/><g clip-path="url(#a)" opacity=".2"><path d="m48.1 1 26.35 42h-24.35l-26.24-42h24.14m1.87-3h-31.43l30 48h31.42l-29.99-48z" fill="#424242"/></g><radialGradient id="c" cx="47.5" cy="67" r="73.814" gradientUnits="userSpaceOnUse"><stop stop-color="#FFA726" offset=".2668"/><stop stop-color="#FB8C00" offset="1"/></radialGradient><circle cx="64" cy="86" r="38" fill="url(#c)"/><g opacity=".2"><path d="m64 51c19.3 0 35 15.7 35 35s-15.7 35-35 35-35-15.7-35-35 15.7-35 35-35m0-3c-20.99 0-38 17.01-38 38s17.01 38 38 38 38-17.01 38-38-17.01-38-38-38z" fill="#424242"/></g><rect x="47.3" y="63.59" width="33.4" height="44.4" fill="none"/><text transform="translate(47.298 107.09)" fill="#D84315" font-family="'Roboto-Bold'" font-size="58px">3</text><g display="none"><g display="inline" opacity=".3"><g opacity=".6"><circle cx="64" cy="64" r="28" fill="none" opacity=".61" stroke="#000" stroke-miterlimit="10" stroke-width=".2625"/><line x1="84" x2="84" y2="128" fill="none" opacity=".61" stroke="#000" stroke-miterlimit="10" stroke-width=".25"/><line x1="44" x2="44" y2="128" fill="none" opacity=".61" stroke="#000" stroke-miterlimit="10" stroke-width=".25"/><line x1="64" x2="64" y2="128" fill="none" opacity=".61" stroke="#000" stroke-miterlimit="10" stroke-width=".25"/><line x1="128" y1="64" y2="64" fill="none" opacity=".61" stroke="#000" stroke-miterlimit="10" stroke-width=".25"/><line x1="128" y1="44" y2="44" fill="none" opacity=".61" stroke="#000" stroke-miterlimit="10" stroke-width=".25"/><line x1="128" y1="83.75" y2="83.75" fill="none" opacity=".61" stroke="#000" stroke-miterlimit="10" stroke-width=".25"/><line x1="128" y1="128" fill="none" opacity=".61" stroke="#000" stroke-miterlimit="10" stroke-width=".25"/><line x2="128" y1="128" fill="none" opacity=".61" stroke="#000" stroke-miterlimit="10" stroke-width=".25"/><g opacity=".61"><path d="m64 4.26c32.94 0 59.74 26.8 59.74 59.74s-26.8 59.74-59.74 59.74-59.74-26.8-59.74-59.74 26.8-59.74 59.74-59.74m0-0.26c-33.14 0-60 26.86-60 60s26.86 60 60 60 60-26.86 60-60-26.86-60-60-60z"/></g><path d="m107.97 115.97h-87.94c-4.42 0-8.03-3.61-8.03-8.03v-87.91c0-4.42 3.61-8.03 8.03-8.03h87.94c4.42 0 8.03 3.61 8.03 8.03v87.91c0 4.42-3.61 8.03-8.03 8.03z" fill="none" opacity=".61" stroke="#000" stroke-miterlimit="10" stroke-width=".2578"/><path d="m99.75 124h-71.75c-4.4 0-8-3.6-8-8v-104c0-4.4 3.6-8 8-8h71.75c4.4 0 8 3.6 8 8v104c0 4.4-3.6 8-8 8z" fill="none" opacity=".61" stroke="#000" stroke-miterlimit="10" stroke-width=".2567"/><path d="M113.77,108H14.23 C8.6,108,4,103.4,4,97.77V30.28c0-5.63,4.6-10.23,10.23-10.23h99.54c5.63,0,10.23,4.6,10.23,10.23v67.48 C124,103.4,119.4,108,113.77,108z" fill="none" opacity=".61" stroke="#000" stroke-miterlimit="10" stroke-width=".2627"/></g><g opacity=".2"><defs><rect id="f" width="128" height="128" opacity=".2"/></defs><clipPath id="b"><use xlink:href="#f"/></clipPath><g clip-path="url(#b)"><g fill="none" stroke="#000" stroke-miterlimit="10" stroke-width=".25"><line x1="-28" x2="-28" y1="160" y2="-32"/><line x1="-24" x2="-24" y1="160" y2="-32"/><line x1="-20" x2="-20" y1="160" y2="-32"/><line x1="-16" x2="-16" y1="160" y2="-32"/><line x1="-12" x2="-12" y1="160" y2="-32"/><line x1="-8" x2="-8" y1="160" y2="-32"/><line x1="-4" x2="-4" y1="160" y2="-32"/><line y1="160" y2="-32"/><line x1="4" x2="4" y1="160" y2="-32"/><line x1="8" x2="8" y1="160" y2="-32"/><line x1="12" x2="12" y1="160" y2="-32"/><line x1="16" x2="16" y1="160" y2="-32"/><line x1="20" x2="20" y1="160" y2="-32"/><line x1="24" x2="24" y1="160" y2="-32"/><line x1="28" x2="28" y1="160" y2="-32"/><line x1="32" x2="32" y1="160" y2="-32"/><line x1="36" x2="36" y1="160" y2="-32"/><line x1="40" x2="40" y1="160" y2="-32"/><line x1="44" x2="44" y1="160" y2="-32"/><line x1="48" x2="48" y1="160" y2="-32"/><line x1="52" x2="52" y1="160" y2="-32"/><line x1="56" x2="56" y1="160" y2="-32"/><line x1="60" x2="60" y1="160" y2="-32"/><line x1="64" x2="64" y1="160" y2="-32"/><line x1="68" x2="68" y1="160" y2="-32"/><line x1="72" x2="72" y1="160" y2="-32"/><line x1="76" x2="76" y1="160" y2="-32"/><line x1="80" x2="80" y1="160" y2="-32"/><line x1="84" x2="84" y1="160" y2="-32"/><line x1="88" x2="88" y1="160" y2="-32"/><line x1="92" x2="92" y1="160" y2="-32"/><line x1="96" x2="96" y1="160" y2="-32"/><line x1="100" x2="100" y1="160" y2="-32"/><line x1="104" x2="104" y1="160" y2="-32"/><line x1="108" x2="108" y1="160" y2="-32"/><line x1="112" x2="112" y1="160" y2="-32"/><line x1="116" x2="116" y1="160" y2="-32"/><line x1="120" x2="120" y1="160" y2="-32"/><line x1="124" x2="124" y1="160" y2="-32"/><line x1="128" x2="128" y1="160" y2="-32"/><line x1="132" x2="132" y1="160" y2="-32"/><line x1="136" x2="136" y1="160" y2="-32"/><line x1="137" x2="137" y1="166.05" y2="-25.95"/><line x1="144" x2="144" y1="160" y2="-32"/><line x1="148" x2="148" y1="160" y2="-32"/><line x1="152" x2="152" y1="160" y2="-32"/><line x1="156" x2="156" y1="160" y2="-32"/></g><g fill="none" stroke="#000" stroke-miterlimit="10" stroke-width=".25"><line x1="-32" x2="160" y1="-28" y2="-28"/><line x1="-32" x2="160" y1="-24" y2="-24"/><line x1="-32" x2="160" y1="-20" y2="-20"/><line x1="-32" x2="160" y1="-16" y2="-16"/><line x1="-32" x2="160" y1="-12" y2="-12"/><line x1="-32" x2="160" y1="-8" y2="-8"/><line x1="-32" x2="160" y1="-4" y2="-4"/><line x1="-32" x2="160"/><line x1="-32" x2="160" y1="4" y2="4"/><line x1="-32" x2="160" y1="8" y2="8"/><line x1="-32" x2="160" y1="12" y2="12"/><line x1="-32" x2="160" y1="16" y2="16"/><line x1="-32" x2="160" y1="20" y2="20"/><line x1="-32" x2="160" y1="24" y2="24"/><line x1="-32" x2="160" y1="28" y2="28"/><line x1="-32" x2="160" y1="32" y2="32"/><line x1="-32" x2="160" y1="36" y2="36"/><line x1="-32" x2="160" y1="40" y2="40"/><line x1="-32" x2="160" y1="44" y2="44"/><line x1="-32" x2="160" y1="48" y2="48"/><line x1="-32" x2="160" y1="52" y2="52"/><line x1="-32" x2="160" y1="56" y2="56"/><line x1="-32" x2="160" y1="60" y2="60"/><line x1="-32" x2="160" y1="64" y2="64"/><line x1="-32" x2="160" y1="68" y2="68"/><line x1="-32" x2="160" y1="72" y2="72"/><line x1="-32" x2="160" y1="76" y2="76"/><line x1="-32" x2="160" y1="80" y2="80"/><line x1="-32" x2="160" y1="84" y2="84"/><line x1="-32" x2="160" y1="88" y2="88"/><line x1="-32" x2="160" y1="92" y2="92"/><line x1="-32" x2="160" y1="96" y2="96"/><line x1="-32" x2="160" y1="100" y2="100"/><line x1="-32" x2="160" y1="104" y2="104"/><line x1="-32" x2="160" y1="108" y2="108"/><line x1="-32" x2="160" y1="112" y2="112"/><line x1="-32" x2="160" y1="116" y2="116"/><line x1="-32" x2="160" y1="120" y2="120"/><line x1="-32" x2="160" y1="124" y2="124"/><line x1="-32" x2="160" y1="128" y2="128"/><line x1="-32" x2="160" y1="132" y2="132"/><line x1="-32" x2="160" y1="136" y2="136"/><line x1="-32" x2="160" y1="140" y2="140"/><line x1="-32" x2="160" y1="144" y2="144"/><line x1="-32" x2="160" y1="148" y2="148"/><line x1="-32" x2="160" y1="152" y2="152"/><line x1="-32" x2="160" y1="156" y2="156"/></g><path d="m159.75-31.75v191.5h-191.5v-191.5h191.5m0.25-0.25h-192v192h192v-192z"/></g></g><g fill="#F44336"><rect width="4" height="128" opacity=".3"/><rect x="124" width="4" height="128" opacity=".3"/><rect transform="matrix(-1.837e-16 1 -1 -1.837e-16 66 -62)" x="62" y="-58" width="4" height="120" opacity=".3"/><rect transform="matrix(-1.837e-16 1 -1 -1.837e-16 190 62)" x="62" y="66" width="4" height="120" opacity=".3"/></g></g></g></svg>
